**kern	**kern	**dynam
*part1	*part1	*part1
*staff2	*staff1	*
*I"Piano	*	*
*clefF4	*clefG2	*
*k[b-e-a-]	*k[b-e-a-]	*
=1	=1	=1
8A- 8c	8e- 8a-	.
8r	8r	.
[4FF [4F [4c-X	[4a- [4ee- [4aa-	>
=	=	=
8FF] 8F] 8c-]	8a-] 8ee-] 8aa-]	.
8r	8r	]
4r	4r	.
=	=	=
*^	*	*
4r	4ryy	4r	.
[4F [4A-	[4C-X	[4e-	.
=	=	=	=
!	!	!LO:TX:b:i:t=dim.	!
4F] 4A-]	2C-]	2e-_	.
4An	.	.	.
*v	*v	*	*
=	=	=
(8BB-L	4B- 4e-] 4g	p
8B-J)	.	.
4c	[4e- [4ee-	.
=	=	=
*^	*	*
4B-	8r	4e-] 4g 4ee-]	.
.	4.BB-	.	.
(4A-	.	([4B- 4d [4b-	.
=	=	=	=
8G)	8rGG	8B-]) 8e- 8b-]	.
8r	4.BBB-	8r	.
4ryy	.	4F#X< 4An< 4e-<	.
*v	*v	*	*
=	=	=
*-	*-	*-
!!!system-decoration: {(s1,s2)}
!!!RDF**kern: < = below
